icon/pk/faceu.svg

<svg viewBox="0 0 48 48" fill="none" xmlns="http://www.w3.org/2000/svg" height="1em" width="1em">
  <path d="M39 6H9C7.34315 6 6 7.34315 6 9V39C6 40.6569 7.34315 42 9 42H39C40.6569 42 42 40.6569 42 39V9C42 7.34315 40.6569 6 39 6Z" fill="#2F88FF" stroke="black" stroke-width="4"/>
  <path d="M27 12V16C29.6667 16.8333 36 19 36 26C36 33 30 36 24 36C18 36 12 33 12 26C12 18 21.6667 13.1667 27 12Z" fill="#43CCF8" stroke="white" stroke-width="4" stroke-linecap="round" stroke-linejoin="round"/>
  <ellipse cx="29" cy="26" rx="3" ry="4" fill="white"/>
  <ellipse cx="19" cy="26" rx="3" ry="4" fill="white"/>
</svg>

<svg width="48" height="48" fill="none" xmlns="http://www.w3.org/2000/svg"><path d="M39 6H9a3 3 0 0 0-3 3v30a3 3 0 0 0 3 3h30a3 3 0 0 0 3-3V9a3 3 0 0 0-3-3Z" fill="#2F88FF" stroke="#000" stroke-width="4"/><path d="M27 12v4c2.667.833 9 3 9 10s-6 10-12 10-12-3-12-10c0-8 9.667-12.833 15-14Z" fill="#43CCF8" stroke="#fff" stroke-width="4" stroke-linecap="round" stroke-linejoin="round"/><ellipse cx="29" cy="26" rx="3" ry="4" fill="#fff"/><ellipse cx="19" cy="26" rx="3" ry="4" fill="#fff"/></svg>
